build/category/ElderlySolid.svg

<svg xmlns="http://www.w3.org/2000/svg" fill="none" viewBox="0 0 24 24" focusable="false"><path d="M0 0H24V24H0z"/><path fill="#74767B" fill-rule="evenodd" d="M9.02417 3.5C9.02417 2.67157 9.69574 2 10.5242 2C11.3526 2 12.0242 2.67157 12.0242 3.5L12.0242 4.5C12.0242 5.32843 11.3526 6 10.5242 6C9.69574 6 9.02417 5.32843 9.02417 4.5L9.02417 3.5ZM9.06846 17.5L10.3742 17.5L10.3742 21.3514C10.3742 21.7104 10.6652 22.0014 11.0242 22.0014C11.3832 22.0014 11.6742 21.7104 11.6742 21.3514L11.6742 17.5L12.3242 17.5C12.7108 17.5 13.0242 17.1866 13.0242 16.8L13.0242 10.4027L13.3688 10.7282C13.8962 11.2265 14.5566 11.553 15.263 11.6732C14.6532 12.0526 14.2472 12.7289 14.2472 13.5L14.2472 14.5976C14.2472 14.9566 14.5382 15.2476 14.8972 15.2476C15.2562 15.2476 15.5472 14.9566 15.5472 14.5976L15.5472 13.5C15.5472 13.0306 15.9278 12.65 16.3972 12.65C16.8667 12.65 17.2472 13.0306 17.2472 13.5L17.2472 21.3514C17.2472 21.7104 17.5382 22.0014 17.8972 22.0014C18.2562 22.0014 18.5472 21.7104 18.5472 21.3514L18.5472 13.5C18.5472 12.7436 18.1566 12.0784 17.5661 11.6952C17.8299 11.6124 18.0213 11.366 18.0213 11.0749C18.0213 10.7159 17.7303 10.4249 17.3713 10.4249L15.8753 10.4249C15.2751 10.4249 14.6977 10.1953 14.2615 9.78317L12.5073 8.04082C11.9439 7.42383 11.1883 7 10.2882 7C9.67194 7 9.09645 7.2055 8.63374 7.55694C8.00564 8.24128 7.67723 9.12906 7.76278 10.0761C7.85297 11.0746 8.41182 12.2164 9.7221 13.2963C9.99912 13.5246 10.0386 13.9343 9.81028 14.2113C9.58196 14.4883 9.1723 14.5278 8.89528 14.2995C8.06348 13.6139 7.45362 12.8724 7.05088 12.11L6.1825 16.669C6.10034 17.1004 6.43103 17.5 6.87014 17.5L7.76846 17.5L7.76846 21.3514C7.76846 21.7104 8.05947 22.0014 8.41846 22.0014C8.77744 22.0014 9.06846 21.7104 9.06846 21.3514L9.06846 17.5Z"/></svg>

<svg xmlns="http://www.w3.org/2000/svg" fill="none" viewBox="0 0 24 24" focusable="false"><path fill="#74767B" fill-rule="evenodd" d="M9.02 3.5c0-.83.67-1.5 1.5-1.5s1.5.67 1.5 1.5v1c0 .82-.67 1.5-1.5 1.5s-1.5-.68-1.5-1.5zm.04 14h1.31v3.85c0 .36.29.65.65.65s.65-.29.65-.65V17.5h.65c.39 0 .7-.32.7-.71V10.4l.34.32c.53.5 1.19.83 1.9.95-.61.38-1.02 1.05-1.02 1.83v1.09c0 .36.29.65.65.65s.65-.29.65-.65V13.5a.85.85 0 1 1 1.7 0v7.85c0 .36.29.65.65.65s.65-.29.65-.65V13.5c0-.76-.39-1.43-.98-1.81a.649.649 0 0 0-.19-1.27h-1.5c-.6 0-1.18-.23-1.61-.64L12.5 8.04C11.94 7.42 11.18 7 10.28 7c-.61 0-1.19.2-1.65.55-.63.69-.96 1.57-.87 2.52.09 1 .65 2.14 1.96 3.22.27.23.31.64.09.92a.66.66 0 0 1-.92.08c-.83-.68-1.44-1.42-1.84-2.18l-.87 4.55c-.08.44.25.84.69.84h.89v3.85c0 .36.29.65.65.65s.65-.29.65-.65z"/></svg>
